X:302
T: DRAUSSEN AUF GRUENESTER HAID
N: Z0300
O: Europa, Mitteleuropa, Deutschland, Stuttgart
R: Lyrisches Lied, Romanze
M: 3/8
L: 1/16
K: F
F3EF2 | G3FG2 | A6 |
G6 | A2A2GG | A2A2
GG | A2A2G2 | F4z2 |
F3EF2 | G3FG2 | A6 |
G6 | G2F2G2 | G2F2G2 | A6 |
A2AAG2 | A2AAG2 |
F3EF2 | G3FG2 | A6 |
G6 | A2A2GG | A2A2
GG | A2A2G2 | F4z2

@@@ Tune index: 10060
